source/pages/about/images/icon-phone_green.svg

<?xml version="1.0" encoding="UTF-8"?>
<svg width="17px" height="17px" viewBox="0 0 17 17" version="1.1" xmlns="http://www.w3.org/2000/svg" xmlns:xlink="http://www.w3.org/1999/xlink">
    <!-- Generator: Sketch 58 (84663) - https://sketch.com -->
    <title>header-phone</title>
    <desc>Created with Sketch.</desc>
    <g id="Page-1" stroke="none" stroke-width="1" fill="none" fill-rule="evenodd">
        <g id="DELIVERY:-Extra-Large:-Desktops-≥1200" transform="translate(-932.000000, -1079.000000)" fill="#0E974F">
            <g id="Group-14" transform="translate(45.000000, 850.000000)">
                <g id="Group-6" transform="translate(0.000000, 75.000000)">
                    <g id="Group-10-Copy" transform="translate(855.000000, 0.000000)">
                        <g id="Group-36" transform="translate(28.000000, 25.000000)">
                            <g id="Group-23" transform="translate(0.000000, 125.000000)">
                                <g id="header-phone">
                                    <g transform="translate(4.000000, 4.000000)" id="Path">
                                        <path d="M16.5934004,13.2011003 C16.5637004,12.9195003 16.4317004,12.6764003 16.2304004,12.5334003 C15.9961004,12.3662003 13.1757003,10.5061002 12.8556003,10.3147002 C12.5520003,10.1101002 12.0537003,10.1453002 11.5917003,10.3983002 C11.3101003,10.5523002 10.4543002,11.0429002 10.0803002,11.2574002 C9.75140023,11.0253002 8.90660021,10.3807002 7.55800019,9.0332002 C6.19510016,7.69340017 5.56150014,6.84530015 5.33710014,6.51750014 C5.55050014,6.14570013 6.04220015,5.28660011 6.19070016,5.01380011 C6.45030016,4.5815001 6.48880016,4.09860009 6.28970016,3.74990008 C6.08620015,3.41110007 4.26460011,0.625900014 4.06550011,0.359700008 C3.7674001,-0.0572000012 3.05020009,-0.133100003 2.51560008,0.249700005 C2.49030008,0.266200006 0.0516000228,2.03720004 0.100000024,2.97880006 L0.102200024,3.01840007 C0.215500026,5.28880011 1.93370006,8.10480018 5.21280013,11.3850002 C8.49190021,14.6652003 11.3057003,16.3856004 13.5739003,16.4978004 L13.6300003,16.5000004 C14.5595003,16.5000004 16.3228004,14.1064003 16.3404004,14.0833003 C16.5901004,13.7324003 16.6165004,13.4090003 16.5934004,13.2011003 Z"></path>
                                    </g>
                                </g>
                            </g>
                        </g>
                    </g>
                </g>
            </g>
        </g>
    </g>
</svg>

<svg xmlns="http://www.w3.org/2000/svg" width="17" height="17" viewBox="0 0 17 17"><g><g><path fill="#0e974f" d="M16.594 13.2a.927.927 0 0 0-.363-.667 201.99 201.99 0 0 0-3.375-2.22c-.303-.204-.802-.168-1.264.085-.281.154-1.137.644-1.511.859-.329-.232-1.174-.877-2.522-2.225-1.363-1.34-1.997-2.187-2.221-2.515.213-.372.705-1.231.853-1.504.26-.432.299-.915.1-1.264C6.086 3.41 4.264.625 4.065.36c-.298-.417-1.015-.493-1.55-.11C2.491.265.052 2.036.101 2.978l.002.04c.113 2.27 1.831 5.086 5.11 8.366 3.28 3.28 6.093 5 8.362 5.113l.056.002c.93 0 2.693-2.393 2.71-2.416.25-.351.276-.675.253-.883z"/></g></g></svg>
